!!!OTL: My Ain Kind Deary 
!!!id: HA031
**kern
*clefF4
*k[b-]
*F:
*M2/2
{16.a
32g
=1
8a
8c
8c
8d
8.f
16g
8f}
{8a
=2
8.g
16a
16b-
16a
16g
16f
8a
8d
8d}
{16.a
32g
=3
8a
8c
8c
8d
8.f
16g
8f}
{16ff
16ee
=4
8.dd
16cc
16dd
16ee
16ff
16cc
8a
8f
8f}
{8cc
=5
16dd
16cc
16dd
16ee
8.ff
16a
16b-
16a
16b-
16cc
8.dd}
{16f
=6
16g
16f
16g
16a
16b-
16a
16g
16f
8a
8d
8d}
{16.a
32g
=7
8a
8c
8c
8d
8.f
16g
8f}
{16ff
16ee
=8
8.dd
16cc
16dd
16ee
16ff
16cc
8a
8f
8f}
==
*-
!!!minrhy: 32
!!!meter: 2/2 
!!!cut: My Ain Kind Deary 
!!!key: HA031  32  F 2/2 
!!!bem: Vorschlge
!!!fog: a--b--a--c--d--e--a--c--
!! Haydn: Volksliedbearbeitungen, Bd1
